X: 21776
T: King Robert The Bruce
R: hornpipe
M: 4/4
K: Dmajor
|:A,|{A,}[DD>]E FD .E.A, .D2|{D}d>c .B/.A/.G/.F/ {D}FEEF|[DD>]E FD G>A B>B|.A/.B/.c/.d/ .e/.f/.g/.e/ fdd:|
.a/.g/|fDaD b(G,G,) b/a/|^gEbE a(A,A,) a/=g/|fDaD b(G,G,) B,|A,/B,/C/D/ E/F/G/A/ FDD a|
d'dDd' b(G,G,) b|e'b E^g a(A,A,>)C|[DD>]E FD EA, D2|.A,/.B,/.C/.D/ .E/.F/.G/.A/ FDD||

